assets/logo/visualBasicLogo.svg

<?xml version="1.0" encoding="UTF-8" standalone="no"?>
<svg width="256px" height="264px" viewBox="0 0 256 264" version="1.1" xmlns="http://www.w3.org/2000/svg" xmlns:xlink="http://www.w3.org/1999/xlink" preserveAspectRatio="xMidYMid">
	<g>
		<path d="M188.370104,263.646853 L90.4460239,168.606598 L32.4941514,212.720701 L0.508940239,196.675315 L0.533418327,67.2117291 L32.6180717,51.0755697 L90.6143108,95.2238406 L188.299219,0.0943426295 L255.467602,27.0192191 L255.49055,236.824478 L188.370104,263.646853" fill="#FFFFFF"></path>
		<path d="M238.471649,38.5183108 L192.237641,19.9848287 L91.9759044,117.622311 L30.7704861,71.0308207 L17.5288606,77.6903904 L17.5079522,186.187474 L30.6368765,192.7731 L91.788749,146.222916 L192.298327,243.773195 L238.492558,225.313657 L238.471649,38.5183108 L238.471649,38.5183108 Z M37.3586614,157.394614 L37.325004,106.471012 L65.6532908,131.760956 L37.3586614,157.394614 L37.3586614,157.394614 Z M127.989291,131.742088 L184.624446,89.4036653 L184.646884,174.411984 L127.989291,131.742088 L127.989291,131.742088 Z" fill="#68217A"></path>
	</g>
</svg>

<?xml version="1.0" encoding="UTF-8" standalone="no"?>
<svg
   width="291.82129"
   height="270.95529"
   viewBox="0 0 291.82128 270.95529"
   version="1.1"
   preserveAspectRatio="xMidYMid"
   id="svg6024"
   sodipodi:docname="visualBasicLogo.svg"
   inkscape:version="1.1 (c68e22c387, 2021-05-23)"
   xmlns:inkscape="http://www.inkscape.org/namespaces/inkscape"
   xmlns:sodipodi="http://sodipodi.sourceforge.net/DTD/sodipodi-0.dtd"
   xmlns="http://www.w3.org/2000/svg"
   xmlns:svg="http://www.w3.org/2000/svg">
  <defs
     id="defs6028" />
  <sodipodi:namedview
     id="namedview6026"
     pagecolor="#ffffff"
     bordercolor="#666666"
     borderopacity="1.0"
     inkscape:pageshadow="2"
     inkscape:pageopacity="0.0"
     inkscape:pagecheckerboard="0"
     showgrid="false"
     fit-margin-top="0"
     fit-margin-left="0"
     fit-margin-right="0"
     fit-margin-bottom="0"
     inkscape:zoom="3.3068182"
     inkscape:cx="96.769759"
     inkscape:cy="141.22337"
     inkscape:window-width="3840"
     inkscape:window-height="2066"
     inkscape:window-x="-11"
     inkscape:window-y="-11"
     inkscape:window-maximized="1"
     inkscape:current-layer="svg6024" />
  <g
     id="g6022"
     transform="translate(13.608248,9.0721653)">
    <path
       d="M 188.3701,263.64685 90.446024,168.6066 32.494151,212.7207 0.50894024,196.67531 0.53341833,67.211729 32.618072,51.07557 90.614311,95.223841 188.29922,0.09434263 255.4676,27.019219 l 0.023,209.805261 -67.12045,26.82237"
       fill="#ffffff"
       id="path6018" />
    <path
       d="M 238.47165,38.518311 192.23764,19.984829 91.975904,117.62231 30.770486,71.030821 17.528861,77.69039 l -0.02091,108.49708 13.128924,6.58563 61.151873,-46.55018 100.509582,97.55027 46.19423,-18.45953 -0.0209,-186.795349 z M 37.358661,157.39461 l -0.03366,-50.9236 28.328287,25.28995 -28.29463,25.63365 z m 90.630629,-25.65252 56.63516,-42.338425 0.0224,85.008315 -56.65759,-42.66989 z"
       fill="#68217a"
       id="path6020" />
  </g>
</svg>
